P3
# Small repository sample for smoke tests
8 8
255
255 0 0 255 64 0 255 128 0 255 192 0 255 255 0 192 255 0 128 255 0 64 255 0
255 32 0 255 96 0 255 160 0 255 224 0 224 255 0 160 255 0 96 255 0 32 255 0
255 64 0 255 128 0 255 192 0 224 255 0 160 255 0 96 255 0 32 255 0 0 255 0
255 96 0 255 160 0 224 255 0 160 255 0 96 255 0 32 255 0 0 255 32 0 255 96 0
255 128 0 224 255 0 160 255 0 96 255 0 32 255 0 0 255 32 0 255 96 0 255 160 0
255 160 0 160 255 0 96 255 0 32 255 0 0 255 96 0 255 160 0 255 224 0 192 255 0
255 192 0 96 255 0 32 255 0 0 255 160 0 255 224 0 192 255 0 128 255 0 64 255 0
255 255 0 64 255 0 0 255 255 0 192 255 0 128 255 0 64 255 0 0 255 64 0 255 128 0
